assets/icon-dairy.svg

<svg
  class="icon icon-accordion icon-dairy"
  aria-hidden="true"
  focusable="false"
  xmlns="http://www.w3.org/2000/svg"
  width="20"
  height="20"
  viewBox="0 0 20 20"
>
  <path d="M6.46816 3.065L4.29671 6.0883L3.4845 5.50493L5.65594 2.48163L6.46816 3.065ZM15.1299 3.15247L13.4802 6.23562L12.5985 5.76386L14.2482 2.6807L15.1299 3.15247Z" />
  <path d="M14.5216 2.58283H15.1011L16.4806 5.74789C16.5356 5.87393 16.5639 6.00995 16.5639 6.14744V16.1023C16.5639 16.372 16.455 16.6302 16.2619 16.8184L13.8023 19.2158C13.6156 19.3979 13.3651 19.4997 13.1043 19.4997H11V18.4997H13.1043L15.5639 16.1023V6.14744L14.3152 3.2826L14.5216 3.19268V2.58283Z" />
  <path d="M3.49998 5.49976H13.5V18.4998C13.5 19.052 13.0523 19.4998 12.5 19.4998H4.49998C3.94769 19.4998 3.49998 19.052 3.49998 18.4998V5.49976ZM4.49998 6.49976V18.4998H12.5V6.49976H4.49998Z" />
  <path d="M5.49998 1.49976C5.49998 0.947471 5.94769 0.499756 6.49998 0.499756H14.1015C14.6538 0.499756 15.1015 0.947471 15.1015 1.49976V2.62301H14.1015V1.49976H6.49998V2.99976H5.49998V1.49976Z" />
  <path d="M15.0133 3.08862H5.87577V2.58862H15.0133V3.08862Z" />
</svg>

<svg xmlns="http://www.w3.org/2000/svg" class="icon icon-accordion icon-dairy" viewBox="0 0 20 20"><path d="M6.468 3.065 4.297 6.088l-.812-.583 2.17-3.023zm8.662.087-1.65 3.084-.882-.472 1.65-3.083z"/><path d="M14.522 2.583h.58l1.379 3.165a1 1 0 0 1 .083.4v9.954a1 1 0 0 1-.302.716l-2.46 2.398a1 1 0 0 1-.698.284H11v-1h2.104l2.46-2.398V6.147l-1.249-2.864.207-.09z"/><path d="M3.5 5.5h10v13a1 1 0 0 1-1 1h-8a1 1 0 0 1-1-1zm1 1v12h8v-12zm1-5a1 1 0 0 1 1-1h7.602a1 1 0 0 1 1 1v1.123h-1V1.5H6.5V3h-1z"/><path d="M15.013 3.089H5.876v-.5h9.137z"/></svg>
